assets/icons/cms_icon.svg

<?xml version="1.0" encoding="UTF-8"?><svg id="Layer_2" xmlns="http://www.w3.org/2000/svg" viewBox="0 0 90.24 90.24"><g id="Layer_1-2"><path d="M58.48,39.5c4.99,0,9.67,1.94,13.19,5.46l3.45,3.45c7.05-3.13,12.56-9.39,14.38-17.03,1.01-4.22,.94-8.3,.04-12.05-.46-1.92-2.9-2.56-4.29-1.16l-12.14,12.14h-13.32v-13.17l12.14-12.14c1.39-1.39,.75-3.83-1.16-4.29-3.76-.9-7.84-.97-12.05,.04-9.75,2.33-17.34,10.61-18.89,20.51-.25,1.47-.31,2.89-.29,4.3l14.59,14.6c1.43-.49,2.89-.66,4.36-.66Zm9.2,9.61c-4.08-4.08-10.15-4.86-15.05-2.45l-18.95-18.81v-10.93L11.28,0,0,11.12l16.92,22.4h10.93l18.81,18.79c-2.41,4.9-1.63,10.97,2.45,15.05l20.62,20.64c2.58,2.56,6.73,2.56,9.29,0l9.3-9.3c2.56-2.56,2.56-6.71,0-9.29l-20.64-20.31Zm-27.51,5.01l-10.43-10.42L3.49,69.93c-4.65,4.65-4.65,12.17,0,16.82,2.32,2.32,5.36,3.48,8.41,3.48s6.09-1.16,8.41-3.49l20.99-20.99c-1.55-3.67-2.07-7.71-1.13-11.65Zm-28.89,29.08c-2.34,0-4.23-1.89-4.23-4.23s1.89-4.23,4.23-4.23,4.23,1.89,4.23,4.23-1.89,4.23-4.23,4.23Z"/></g></svg>

<svg xmlns="http://www.w3.org/2000/svg" viewBox="0 0 90.24 90.24"><path d="M58.48 39.5c4.99 0 9.67 1.94 13.19 5.46l3.45 3.45c7.05-3.13 12.56-9.39 14.38-17.03 1.01-4.22.94-8.3.04-12.05-.46-1.92-2.9-2.56-4.29-1.16L73.11 30.31H59.79V17.14L71.93 5c1.39-1.39.75-3.83-1.16-4.29-3.76-.9-7.84-.97-12.05.04-9.75 2.33-17.34 10.61-18.89 20.51-.25 1.47-.31 2.89-.29 4.3l14.59 14.6c1.43-.49 2.89-.66 4.36-.66Zm9.2 9.61c-4.08-4.08-10.15-4.86-15.05-2.45L33.68 27.85V16.92L11.28 0 0 11.12l16.92 22.4h10.93l18.81 18.79c-2.41 4.9-1.63 10.97 2.45 15.05L69.73 88c2.58 2.56 6.73 2.56 9.29 0l9.3-9.3c2.56-2.56 2.56-6.71 0-9.29L67.68 49.1Zm-27.51 5.01L29.74 43.7 3.49 69.93a11.884 11.884 0 0 0 0 16.82c2.32 2.32 5.36 3.48 8.41 3.48s6.09-1.16 8.41-3.49L41.3 65.75c-1.55-3.67-2.07-7.71-1.13-11.65ZM11.28 83.2c-2.34 0-4.23-1.89-4.23-4.23s1.89-4.23 4.23-4.23 4.23 1.89 4.23 4.23-1.89 4.23-4.23 4.23Z"/></svg>
